X:1
T:Title
%%score { ( 1 4 5 ) | ( 2 3 6 ) }
L:1/8
Q:1/4=100
M:4/4
K:G
V:1 treble nm="Grand Piano"
V:4 treble 
V:5 treble 
V:2 treble 
V:3 treble 
V:6 treble 
V:1
 B2 B2 cB B2 | G2 G2 GF F2 | A2 A2 cA A2 | F2 F2 AG G2 | d2 d2 edBG | F2 [^CE]2 D4 | A2 A2 cAFE | %7
w: Charles~Edward~Prior * * * *|||||||
 D2 EF G4 | d6 z2 | B<d D2 z2 B,B | A<c D2 z2 A,[CA] | [B,G]<B D2 D4 | d6 z2 | B<d D2 z2 B,B | %14
w: |||||||
 A<c D2 D2 F>A | G6 z2 |] %16
w: ||
V:2
 z4 .E2 z2 | [G,B,D]2 [G,B,D]2 [A,CD]2 [A,CD]2 | z4 .A,2 z2 | z4[K:treble] .C2 z2 | %4
 [G,B,G]2 [G,B,G]2 [G,G]-[G,B,G][G,DG][K:bass][G,B,D] | [A,D]2 [A,,G,]2 [D,F,]4 | z4 .A,2 z2 | %7
 [D,F,]2 [D,C]-[D,A,C] [G,B,]4 | [G,B,G]2 [G,B,]2[K:bass] [G,B,]2 [D,A,]2 | [G,G]2 z2 z4[K:bass] | %10
 z4 C4 | z/ D3/2 [G,B,]2 [G,B,]4 | [G,B,G]2 [G,B,]2[K:bass] [G,B,]2 [D,A,]2 | %13
 [G,G]2 z2 z4[K:bass] | z4 z2 A,2 | [G,B,]6 z2 |] %16
V:3
 [G,DG]2 [G,DG]2 [G,G]-[G,DG] [G,DG]2 | x8 | [D,F,D]2 [D,F,D]2 [D,D]-[D,CD] [D,CD]2 | %3
 [D,A,D]2 [D,A,D]2[K:treble] [G,D]-[G,B,D] [G,B,D]2 | z4 .C2 z2[K:bass] | x8 | %6
 [D,F,D]2 [D,F,D]2 [D,D]-[D,F,D][D,A,D][D,G,D] | z2 .G,2 z4 | x4[K:bass] x4 | %9
 z/ B,3/2 [G,B,]2 [G,B,]2 G,[K:bass][G,D] | [D,F,D]2 [D,A,C]2 [D,A,]2 z F, | G,2 z2 z4 | %12
 x4[K:bass] x4 | z/ B,3/2 [G,B,]2 [G,B,]2 G,[K:bass][G,D] | %14
 [D,F,D]2 [D,A,C]2 [D,A,C]2 [D,C]->[D,F,C] | x8 |] %16
V:4
 x8 | x8 | x8 | x8 | x8 | x8 | x8 | x8 | z2 G2 z ecd | z4 D4 | z4 D4 | x8 | z2 G2 z ecd | z4 D4 | %14
 x8 | x8 |] %16
V:5
 x8 | x8 | x8 | x8 | x8 | x8 | x8 | x8 | z4 G2 F2 | x8 | x8 | x8 | z4 G2 F2 | x8 | x8 | x8 |] %16
V:6
 x8 | x8 | x8 | x4[K:treble] x4 | x7[K:bass] x | x8 | x8 | x8 | x4[K:bass] x4 | x7[K:bass] x | %10
 z4 z2 D,2 | x8 | x4[K:bass] x4 | x7[K:bass] x | x8 | x8 |] %16

